X: 35160
T: Ronnie Cooper
R: reel
M: 4/4
K: Gmajor
E|DGBG dGBG|cBcd efga|bg (3gfg agef|gedB AGEG|
DGBG dGBG|cBcd efga|bg (3gfg ageg|dBAB G3:|
g/a/|bg (3gfg agef|gedB AGEG|DB, (3B,A,B, DEGA|Bdgb ageg|
bg (3gfg agef|gedB AGEG|DB, (3B,A,B, DEGA|dBAB G3:|

